images/password-icon.svg

<svg xmlns="http://www.w3.org/2000/svg" xmlns:xlink="http://www.w3.org/1999/xlink" width="22" zoomAndPan="magnify" viewBox="0 0 16.5 17.25" height="23" preserveAspectRatio="xMidYMid meet" version="1.0"><defs><clipPath id="43af2b9c9c"><path d="M 0.105469 0 L 15.917969 0 L 15.917969 15.8125 L 0.105469 15.8125 Z M 0.105469 0 " clip-rule="nonzero"/></clipPath><clipPath id="fc059e2032"><path d="M 0.105469 8 L 8 8 L 8 15.8125 L 0.105469 15.8125 Z M 0.105469 8 " clip-rule="nonzero"/></clipPath><clipPath id="c964a49823"><path d="M 0.105469 0 L 15.917969 0 L 15.917969 15.8125 L 0.105469 15.8125 Z M 0.105469 0 " clip-rule="nonzero"/></clipPath><clipPath id="afd8878a26"><path d="M 0.105469 8 L 8 8 L 8 15.8125 L 0.105469 15.8125 Z M 0.105469 8 " clip-rule="nonzero"/></clipPath></defs><path fill="#2c6e7a" d="M 11.984375 5.574219 C 11.726562 5.574219 11.484375 5.515625 11.253906 5.402344 C 11.019531 5.289062 10.828125 5.128906 10.671875 4.925781 C 10.515625 4.722656 10.410156 4.492188 10.359375 4.238281 C 10.308594 3.988281 10.316406 3.738281 10.382812 3.488281 C 10.453125 3.238281 10.570312 3.019531 10.738281 2.824219 C 10.910156 2.632812 11.113281 2.484375 11.351562 2.386719 C 11.589844 2.289062 11.835938 2.246094 12.09375 2.265625 C 12.351562 2.28125 12.589844 2.355469 12.8125 2.484375 C 13.035156 2.609375 13.21875 2.78125 13.363281 2.996094 C 13.503906 3.210938 13.59375 3.445312 13.625 3.699219 C 13.660156 3.957031 13.636719 4.207031 13.554688 4.449219 C 13.46875 4.691406 13.335938 4.90625 13.15625 5.089844 C 12.832031 5.414062 12.441406 5.574219 11.984375 5.574219 Z M 11.984375 2.734375 C 11.789062 2.734375 11.601562 2.78125 11.429688 2.875 C 11.253906 2.96875 11.113281 3.097656 11.003906 3.261719 C 10.894531 3.425781 10.828125 3.605469 10.808594 3.800781 C 10.789062 3.996094 10.820312 4.1875 10.894531 4.367188 C 10.96875 4.550781 11.082031 4.703125 11.234375 4.828125 C 11.386719 4.953125 11.5625 5.035156 11.753906 5.074219 C 11.949219 5.113281 12.136719 5.105469 12.328125 5.046875 C 12.515625 4.988281 12.679688 4.890625 12.820312 4.75 C 12.988281 4.582031 13.097656 4.382812 13.140625 4.148438 C 13.1875 3.914062 13.167969 3.6875 13.074219 3.464844 C 12.984375 3.246094 12.839844 3.066406 12.640625 2.933594 C 12.441406 2.800781 12.222656 2.738281 11.984375 2.734375 Z M 11.984375 2.734375 " fill-opacity="1" fill-rule="nonzero"/><g clip-path="url(#43af2b9c9c)"><path fill="#2c6e7a" d="M 0.359375 15.808594 C 0.292969 15.808594 0.238281 15.785156 0.191406 15.738281 C 0.144531 15.691406 0.121094 15.632812 0.125 15.566406 L 0.140625 13.359375 C 0.140625 13.140625 0.21875 12.953125 0.375 12.796875 L 6.488281 6.683594 C 6.300781 6.167969 6.207031 5.636719 6.210938 5.085938 C 6.214844 4.535156 6.3125 4.003906 6.507812 3.488281 C 6.703125 2.976562 6.980469 2.511719 7.34375 2.097656 C 7.707031 1.683594 8.128906 1.347656 8.613281 1.085938 C 9.09375 0.824219 9.609375 0.65625 10.152344 0.578125 C 10.699219 0.503906 11.238281 0.523438 11.777344 0.644531 C 12.3125 0.761719 12.8125 0.96875 13.273438 1.269531 C 13.734375 1.566406 14.128906 1.9375 14.457031 2.378906 C 14.785156 2.820312 15.027344 3.304688 15.183594 3.832031 C 15.335938 4.359375 15.394531 4.894531 15.351562 5.445312 C 15.3125 5.992188 15.179688 6.515625 14.949219 7.015625 C 14.722656 7.515625 14.414062 7.960938 14.023438 8.351562 C 13.714844 8.65625 13.371094 8.917969 12.988281 9.125 C 12.605469 9.335938 12.203125 9.488281 11.777344 9.582031 C 11.351562 9.675781 10.917969 9.710938 10.484375 9.679688 C 10.050781 9.652344 9.628906 9.5625 9.21875 9.414062 L 7.789062 10.84375 C 7.742188 10.890625 7.683594 10.914062 7.617188 10.914062 L 6.859375 10.914062 L 6.859375 11.671875 C 6.859375 11.738281 6.835938 11.796875 6.789062 11.84375 L 5.980469 12.652344 C 5.933594 12.699219 5.875 12.722656 5.8125 12.722656 L 5.050781 12.722656 L 5.050781 13.480469 C 5.050781 13.546875 5.027344 13.601562 4.980469 13.648438 L 4.171875 14.460938 C 4.125 14.507812 4.070312 14.527344 4.003906 14.527344 L 3.242188 14.527344 L 3.242188 15.289062 C 3.242188 15.355469 3.21875 15.410156 3.171875 15.457031 L 3.101562 15.527344 C 2.949219 15.679688 2.765625 15.761719 2.546875 15.765625 L 0.367188 15.808594 Z M 10.789062 1.011719 C 10.453125 1.011719 10.121094 1.054688 9.796875 1.132812 C 9.46875 1.214844 9.160156 1.335938 8.863281 1.492188 C 8.566406 1.652344 8.292969 1.84375 8.042969 2.066406 C 7.792969 2.292969 7.574219 2.542969 7.386719 2.820312 C 7.199219 3.101562 7.046875 3.398438 6.933594 3.714844 C 6.816406 4.027344 6.742188 4.355469 6.707031 4.6875 C 6.671875 5.023438 6.679688 5.355469 6.726562 5.6875 C 6.773438 6.019531 6.859375 6.34375 6.984375 6.652344 C 7.027344 6.75 7.007812 6.835938 6.933594 6.910156 L 0.714844 13.132812 C 0.648438 13.195312 0.617188 13.273438 0.617188 13.363281 L 0.601562 15.328125 L 2.539062 15.289062 C 2.628906 15.285156 2.703125 15.253906 2.765625 15.191406 L 2.765625 14.292969 C 2.765625 14.226562 2.789062 14.167969 2.835938 14.121094 C 2.882812 14.078125 2.9375 14.054688 3.003906 14.054688 L 3.90625 14.054688 L 4.574219 13.382812 L 4.574219 12.484375 C 4.574219 12.417969 4.597656 12.363281 4.644531 12.316406 C 4.691406 12.269531 4.746094 12.246094 4.8125 12.246094 L 5.710938 12.246094 L 6.382812 11.574219 L 6.382812 10.675781 C 6.382812 10.609375 6.40625 10.554688 6.453125 10.507812 C 6.5 10.460938 6.554688 10.4375 6.621094 10.4375 L 7.519531 10.4375 L 8.992188 8.96875 C 9.066406 8.894531 9.148438 8.875 9.246094 8.914062 C 9.621094 9.066406 10.007812 9.160156 10.410156 9.199219 C 10.8125 9.234375 11.210938 9.214844 11.605469 9.132812 C 12 9.054688 12.375 8.917969 12.730469 8.726562 C 13.082031 8.535156 13.402344 8.296875 13.6875 8.011719 L 13.855469 8.179688 L 13.6875 8.011719 C 13.976562 7.726562 14.214844 7.402344 14.40625 7.046875 C 14.597656 6.6875 14.730469 6.3125 14.8125 5.914062 C 14.890625 5.515625 14.910156 5.113281 14.871094 4.710938 C 14.828125 4.308594 14.734375 3.917969 14.578125 3.542969 C 14.421875 3.167969 14.214844 2.824219 13.957031 2.511719 C 13.703125 2.199219 13.402344 1.929688 13.066406 1.703125 C 12.730469 1.476562 12.367188 1.304688 11.980469 1.1875 C 11.589844 1.070312 11.195312 1.011719 10.789062 1.011719 Z M 10.789062 1.011719 " fill-opacity="1" fill-rule="nonzero"/></g><g clip-path="url(#fc059e2032)"><path fill="#2c6e7a" d="M 0.359375 15.808594 C 0.253906 15.808594 0.183594 15.757812 0.140625 15.660156 C 0.101562 15.5625 0.117188 15.476562 0.191406 15.402344 L 7.25 8.34375 C 7.363281 8.234375 7.472656 8.234375 7.585938 8.34375 C 7.695312 8.457031 7.695312 8.570312 7.585938 8.679688 L 0.527344 15.738281 C 0.484375 15.785156 0.425781 15.808594 0.359375 15.808594 Z M 0.359375 15.808594 " fill-opacity="1" fill-rule="nonzero"/></g><path fill="#2c6e7a" d="M 11.984375 5.574219 C 11.726562 5.574219 11.484375 5.515625 11.253906 5.402344 C 11.019531 5.289062 10.828125 5.128906 10.671875 4.925781 C 10.515625 4.722656 10.410156 4.492188 10.359375 4.238281 C 10.308594 3.988281 10.316406 3.738281 10.382812 3.488281 C 10.453125 3.238281 10.570312 3.019531 10.738281 2.824219 C 10.910156 2.632812 11.113281 2.484375 11.351562 2.386719 C 11.589844 2.289062 11.835938 2.246094 12.09375 2.265625 C 12.351562 2.28125 12.589844 2.355469 12.8125 2.484375 C 13.035156 2.609375 13.21875 2.78125 13.363281 2.996094 C 13.503906 3.210938 13.59375 3.445312 13.625 3.699219 C 13.660156 3.957031 13.636719 4.207031 13.554688 4.449219 C 13.46875 4.691406 13.335938 4.90625 13.15625 5.089844 C 12.832031 5.414062 12.441406 5.574219 11.984375 5.574219 Z M 11.984375 2.734375 C 11.789062 2.734375 11.601562 2.78125 11.429688 2.875 C 11.253906 2.96875 11.113281 3.097656 11.003906 3.261719 C 10.894531 3.425781 10.828125 3.605469 10.808594 3.800781 C 10.789062 3.996094 10.820312 4.1875 10.894531 4.367188 C 10.96875 4.550781 11.082031 4.703125 11.234375 4.828125 C 11.386719 4.953125 11.5625 5.035156 11.753906 5.074219 C 11.949219 5.113281 12.136719 5.105469 12.328125 5.046875 C 12.515625 4.988281 12.679688 4.890625 12.820312 4.75 C 12.988281 4.582031 13.097656 4.382812 13.140625 4.148438 C 13.1875 3.914062 13.167969 3.6875 13.074219 3.464844 C 12.984375 3.246094 12.839844 3.066406 12.640625 2.933594 C 12.441406 2.800781 12.222656 2.738281 11.984375 2.734375 Z M 11.984375 2.734375 " fill-opacity="1" fill-rule="nonzero"/><g clip-path="url(#c964a49823)"><path fill="#2c6e7a" d="M 0.359375 15.808594 C 0.292969 15.808594 0.238281 15.785156 0.191406 15.738281 C 0.144531 15.691406 0.121094 15.632812 0.125 15.566406 L 0.140625 13.359375 C 0.140625 13.140625 0.21875 12.953125 0.375 12.796875 L 6.488281 6.683594 C 6.300781 6.167969 6.207031 5.636719 6.210938 5.085938 C 6.214844 4.535156 6.3125 4.003906 6.507812 3.488281 C 6.703125 2.976562 6.980469 2.511719 7.34375 2.097656 C 7.707031 1.683594 8.128906 1.347656 8.613281 1.085938 C 9.09375 0.824219 9.609375 0.65625 10.152344 0.578125 C 10.699219 0.503906 11.238281 0.523438 11.777344 0.644531 C 12.3125 0.761719 12.8125 0.96875 13.273438 1.269531 C 13.734375 1.566406 14.128906 1.9375 14.457031 2.378906 C 14.785156 2.820312 15.027344 3.304688 15.183594 3.832031 C 15.335938 4.359375 15.394531 4.894531 15.351562 5.445312 C 15.3125 5.992188 15.179688 6.515625 14.949219 7.015625 C 14.722656 7.515625 14.414062 7.960938 14.023438 8.351562 C 13.714844 8.65625 13.371094 8.917969 12.988281 9.125 C 12.605469 9.335938 12.203125 9.488281 11.777344 9.582031 C 11.351562 9.675781 10.917969 9.710938 10.484375 9.679688 C 10.050781 9.652344 9.628906 9.5625 9.21875 9.414062 L 7.789062 10.84375 C 7.742188 10.890625 7.683594 10.914062 7.617188 10.914062 L 6.859375 10.914062 L 6.859375 11.671875 C 6.859375 11.738281 6.835938 11.796875 6.789062 11.84375 L 5.980469 12.652344 C 5.933594 12.699219 5.875 12.722656 5.8125 12.722656 L 5.050781 12.722656 L 5.050781 13.480469 C 5.050781 13.546875 5.027344 13.601562 4.980469 13.648438 L 4.171875 14.460938 C 4.125 14.507812 4.070312 14.527344 4.003906 14.527344 L 3.242188 14.527344 L 3.242188 15.289062 C 3.242188 15.355469 3.21875 15.410156 3.171875 15.457031 L 3.101562 15.527344 C 2.949219 15.679688 2.765625 15.761719 2.546875 15.765625 L 0.367188 15.808594 Z M 10.789062 1.011719 C 10.453125 1.011719 10.121094 1.054688 9.796875 1.132812 C 9.46875 1.214844 9.160156 1.335938 8.863281 1.492188 C 8.566406 1.652344 8.292969 1.84375 8.042969 2.066406 C 7.792969 2.292969 7.574219 2.542969 7.386719 2.820312 C 7.199219 3.101562 7.046875 3.398438 6.933594 3.714844 C 6.816406 4.027344 6.742188 4.355469 6.707031 4.6875 C 6.671875 5.023438 6.679688 5.355469 6.726562 5.6875 C 6.773438 6.019531 6.859375 6.34375 6.984375 6.652344 C 7.027344 6.75 7.007812 6.835938 6.933594 6.910156 L 0.714844 13.132812 C 0.648438 13.195312 0.617188 13.273438 0.617188 13.363281 L 0.601562 15.328125 L 2.539062 15.289062 C 2.628906 15.285156 2.703125 15.253906 2.765625 15.191406 L 2.765625 14.292969 C 2.765625 14.226562 2.789062 14.167969 2.835938 14.121094 C 2.882812 14.078125 2.9375 14.054688 3.003906 14.054688 L 3.90625 14.054688 L 4.574219 13.382812 L 4.574219 12.484375 C 4.574219 12.417969 4.597656 12.363281 4.644531 12.316406 C 4.691406 12.269531 4.746094 12.246094 4.8125 12.246094 L 5.710938 12.246094 L 6.382812 11.574219 L 6.382812 10.675781 C 6.382812 10.609375 6.40625 10.554688 6.453125 10.507812 C 6.5 10.460938 6.554688 10.4375 6.621094 10.4375 L 7.519531 10.4375 L 8.992188 8.96875 C 9.066406 8.894531 9.148438 8.875 9.246094 8.914062 C 9.621094 9.066406 10.007812 9.160156 10.410156 9.199219 C 10.8125 9.234375 11.210938 9.214844 11.605469 9.132812 C 12 9.054688 12.375 8.917969 12.730469 8.726562 C 13.082031 8.535156 13.402344 8.296875 13.6875 8.011719 L 13.855469 8.179688 L 13.6875 8.011719 C 13.976562 7.726562 14.214844 7.402344 14.40625 7.046875 C 14.597656 6.6875 14.730469 6.3125 14.8125 5.914062 C 14.890625 5.515625 14.910156 5.113281 14.871094 4.710938 C 14.828125 4.308594 14.734375 3.917969 14.578125 3.542969 C 14.421875 3.167969 14.214844 2.824219 13.957031 2.511719 C 13.703125 2.199219 13.402344 1.929688 13.066406 1.703125 C 12.730469 1.476562 12.367188 1.304688 11.980469 1.1875 C 11.589844 1.070312 11.195312 1.011719 10.789062 1.011719 Z M 10.789062 1.011719 " fill-opacity="1" fill-rule="nonzero"/></g><g clip-path="url(#afd8878a26)"><path fill="#2c6e7a" d="M 0.359375 15.808594 C 0.253906 15.808594 0.183594 15.757812 0.140625 15.660156 C 0.101562 15.5625 0.117188 15.476562 0.191406 15.402344 L 7.25 8.34375 C 7.363281 8.234375 7.472656 8.234375 7.585938 8.34375 C 7.695312 8.457031 7.695312 8.570312 7.585938 8.679688 L 0.527344 15.738281 C 0.484375 15.785156 0.425781 15.808594 0.359375 15.808594 Z M 0.359375 15.808594 " fill-opacity="1" fill-rule="nonzero"/></g></svg>

<svg xmlns="http://www.w3.org/2000/svg" width="22" height="23" viewBox="0 0 16.5 17.25"><defs><clipPath id="a"><path d="M.105 0h15.813v15.813H.105Zm0 0"/></clipPath><clipPath id="b"><path d="M.105 8H8v7.813H.105Zm0 0"/></clipPath><clipPath id="c"><path d="M.105 0h15.813v15.813H.105Zm0 0"/></clipPath><clipPath id="d"><path d="M.105 8H8v7.813H.105Zm0 0"/></clipPath></defs><path fill="#2c6e7a" d="M11.984 5.574q-.385 0-.73-.172a1.6 1.6 0 0 1-.582-.476 1.65 1.65 0 0 1-.313-.688q-.076-.375.024-.75c.07-.25.187-.468.355-.664a1.67 1.67 0 0 1 1.356-.558q.386.024.719.218.334.188.55.512.212.323.262.703.053.387-.07.75a1.7 1.7 0 0 1-.399.64 1.6 1.6 0 0 1-1.172.485m0-2.84q-.294 0-.554.141a1.16 1.16 0 0 0-.426.387 1.17 1.17 0 0 0 .23 1.566 1.19 1.19 0 0 0 1.094.219 1.184 1.184 0 0 0 .313-2.113 1.2 1.2 0 0 0-.657-.2m0 0"/><g clip-path="url(#a)"><path fill="#2c6e7a" d="M.36 15.809a.23.23 0 0 1-.169-.07.22.22 0 0 1-.066-.173l.016-2.207q0-.328.234-.562l6.113-6.113a4.5 4.5 0 0 1-.277-1.598 4.56 4.56 0 0 1 1.133-2.988 4.6 4.6 0 0 1 1.27-1.012 4.55 4.55 0 0 1 3.163-.441 4.5 4.5 0 0 1 1.496.625q.692.446 1.184 1.109.492.662.727 1.453.23.79.168 1.613a4.5 4.5 0 0 1-.403 1.57q-.34.75-.926 1.337a4.6 4.6 0 0 1-1.035.773q-.574.316-1.21.457-.641.143-1.294.098a4.5 4.5 0 0 1-1.265-.266l-1.43 1.43a.24.24 0 0 1-.172.07H6.86v.758a.24.24 0 0 1-.07.172l-.809.808a.23.23 0 0 1-.168.07h-.761v.758a.23.23 0 0 1-.07.168l-.81.813a.22.22 0 0 1-.167.066h-.762v.762a.23.23 0 0 1-.07.168l-.07.07a.78.78 0 0 1-.555.239l-2.18.043ZM10.79 1.012c-.337 0-.669.043-.993.12a4.16 4.16 0 0 0-1.754.934q-.375.34-.656.754-.283.421-.453.895c-.118.312-.192.64-.227.973q-.052.501.02 1c.046.332.132.656.257.964q.063.147-.05.258l-6.22 6.223a.3.3 0 0 0-.097.23l-.015 1.965 1.937-.039a.33.33 0 0 0 .227-.098v-.898q0-.1.07-.172a.24.24 0 0 1 .168-.066h.902l.668-.672v-.899q0-.098.07-.168a.23.23 0 0 1 .168-.07h.899l.672-.672v-.898q0-.099.07-.168a.23.23 0 0 1 .168-.07h.899l1.472-1.47q.109-.111.254-.054a4.09 4.09 0 0 0 2.36.219q.591-.118 1.124-.406.529-.288.957-.715l.168.168-.168-.168c.29-.285.528-.61.72-.965.19-.36.323-.734.406-1.133q.117-.598.058-1.203a4.073 4.073 0 0 0-.914-2.2 4.1 4.1 0 0 0-1.977-1.324 4.1 4.1 0 0 0-1.19-.175m0 0"/></g><g clip-path="url(#b)"><path fill="#2c6e7a" d="M.36 15.809c-.106 0-.176-.051-.22-.149a.22.22 0 0 1 .051-.258L7.25 8.344q.168-.165.336 0 .165.17 0 .336L.527 15.738a.22.22 0 0 1-.168.07m0 0"/></g><path fill="#2c6e7a" d="M11.984 5.574q-.385 0-.73-.172a1.6 1.6 0 0 1-.582-.476 1.65 1.65 0 0 1-.313-.688q-.076-.375.024-.75c.07-.25.187-.468.355-.664a1.67 1.67 0 0 1 1.356-.558q.386.024.719.218.334.188.55.512.212.323.262.703.053.387-.07.75a1.7 1.7 0 0 1-.399.64 1.6 1.6 0 0 1-1.172.485m0-2.84q-.294 0-.554.141a1.16 1.16 0 0 0-.426.387 1.17 1.17 0 0 0 .23 1.566 1.19 1.19 0 0 0 1.094.219 1.184 1.184 0 0 0 .313-2.113 1.2 1.2 0 0 0-.657-.2m0 0"/><g clip-path="url(#c)"><path fill="#2c6e7a" d="M.36 15.809a.23.23 0 0 1-.169-.07.22.22 0 0 1-.066-.173l.016-2.207q0-.328.234-.562l6.113-6.113a4.5 4.5 0 0 1-.277-1.598 4.56 4.56 0 0 1 1.133-2.988 4.6 4.6 0 0 1 1.27-1.012 4.55 4.55 0 0 1 3.163-.441 4.5 4.5 0 0 1 1.496.625q.692.446 1.184 1.109.492.662.727 1.453.23.79.168 1.613a4.5 4.5 0 0 1-.403 1.57q-.34.75-.926 1.337a4.6 4.6 0 0 1-1.035.773q-.574.316-1.21.457-.641.143-1.294.098a4.5 4.5 0 0 1-1.265-.266l-1.43 1.43a.24.24 0 0 1-.172.07H6.86v.758a.24.24 0 0 1-.07.172l-.809.808a.23.23 0 0 1-.168.07h-.761v.758a.23.23 0 0 1-.07.168l-.81.813a.22.22 0 0 1-.167.066h-.762v.762a.23.23 0 0 1-.07.168l-.07.07a.78.78 0 0 1-.555.239l-2.18.043ZM10.79 1.012c-.337 0-.669.043-.993.12a4.16 4.16 0 0 0-1.754.934q-.375.34-.656.754-.283.421-.453.895c-.118.312-.192.64-.227.973q-.052.501.02 1c.046.332.132.656.257.964q.063.147-.05.258l-6.22 6.223a.3.3 0 0 0-.097.23l-.015 1.965 1.937-.039a.33.33 0 0 0 .227-.098v-.898q0-.1.07-.172a.24.24 0 0 1 .168-.066h.902l.668-.672v-.899q0-.098.07-.168a.23.23 0 0 1 .168-.07h.899l.672-.672v-.898q0-.099.07-.168a.23.23 0 0 1 .168-.07h.899l1.472-1.47q.109-.111.254-.054a4.09 4.09 0 0 0 2.36.219q.591-.118 1.124-.406.529-.288.957-.715l.168.168-.168-.168c.29-.285.528-.61.72-.965.19-.36.323-.734.406-1.133q.117-.598.058-1.203a4.073 4.073 0 0 0-.914-2.2 4.1 4.1 0 0 0-1.977-1.324 4.1 4.1 0 0 0-1.19-.175m0 0"/></g><g clip-path="url(#d)"><path fill="#2c6e7a" d="M.36 15.809c-.106 0-.176-.051-.22-.149a.22.22 0 0 1 .051-.258L7.25 8.344q.168-.165.336 0 .165.17 0 .336L.527 15.738a.22.22 0 0 1-.168.07m0 0"/></g></svg>
